assets/src/images/icons/ic_insurance.svg

<svg width="50" height="50" viewBox="0 0 50 50" fill="none" xmlns="http://www.w3.org/2000/svg">
<path fill-rule="evenodd" clip-rule="evenodd" d="M40 20.1725L49.5 24.275C49.8041 24.4077 50.0005 24.7082 50 25.04V37.0908C49.9915 39.8316 48.66 42.3995 46.425 43.9858L38.3625 49.725C37.846 50.0917 37.154 50.0917 36.6375 49.725L35.9542 49.2392C35.4857 49.724 34.8409 49.9985 34.1667 50H2.5C1.11929 50 0 48.8807 0 47.5V5.83333C0 4.45262 1.11929 3.33333 2.5 3.33333H3.33333V2.5C3.33333 1.11929 4.45262 0 5.83333 0H37.5C38.8807 0 40 1.11929 40 2.5V20.1725ZM5.83333 1.66667C5.37309 1.66667 5 2.03976 5 2.5V3.33333H25.8333C25.8412 3.33333 25.8488 3.33503 25.8566 3.33677C25.8668 3.33907 25.8773 3.34142 25.8892 3.34C25.9598 3.34474 26.0295 3.35847 26.0967 3.38083C26.106 3.38381 26.118 3.38591 26.1287 3.38782C26.1391 3.38965 26.1484 3.39129 26.1533 3.39333C26.1584 3.39546 26.1629 3.39867 26.1674 3.40196C26.1718 3.40513 26.1763 3.40838 26.1817 3.41083C26.2723 3.45139 26.355 3.50784 26.4258 3.5775L36.4258 13.5775C36.4955 13.6483 36.5519 13.731 36.5925 13.8217C36.5928 13.8223 36.593 13.8229 36.5933 13.8234C36.5949 13.8266 36.5967 13.8287 36.5987 13.8311C36.6019 13.8349 36.6057 13.8394 36.61 13.85C36.6142 13.8602 36.6158 13.871 36.6174 13.8818V13.8818C36.6186 13.8904 36.6199 13.899 36.6225 13.9075C36.6449 13.9737 36.6584 14.0427 36.6625 14.1125C36.6627 14.1148 36.663 14.1172 36.6635 14.1195C36.6637 14.121 36.6641 14.1226 36.6644 14.1241C36.6654 14.1284 36.6666 14.1327 36.6678 14.137C36.6706 14.1468 36.6733 14.1566 36.6733 14.1667V19.4525L37.1733 19.235C37.3839 19.1442 37.6227 19.1442 37.8333 19.235L38.3333 19.4525V2.5C38.3333 2.03976 37.9602 1.66667 37.5 1.66667H5.83333ZM33.8217 13.3333L26.6667 6.17833V12.5C26.6667 12.9602 27.0398 13.3333 27.5 13.3333H33.8217ZM2.5 48.3333H34.1667C34.2975 48.33 34.4255 48.2951 34.54 48.2317L30 45H5C4.53976 45 4.16667 44.6269 4.16667 44.1667C4.16667 43.7064 4.53976 43.3333 5 43.3333H27.7683C27.2321 42.8399 26.7613 42.2798 26.3675 41.6667H20C19.5398 41.6667 19.1667 41.2936 19.1667 40.8333C19.1667 40.3731 19.5398 40 20 40H25.5258C25.3283 39.4604 25.187 38.9019 25.1042 38.3333H5C4.53976 38.3333 4.16667 37.9602 4.16667 37.5C4.16667 37.0398 4.53976 36.6667 5 36.6667H25V35H20C19.5398 35 19.1667 34.6269 19.1667 34.1667C19.1667 33.7064 19.5398 33.3333 20 33.3333H25V31.6667H5C4.53976 31.6667 4.16667 31.2936 4.16667 30.8333C4.16667 30.3731 4.53976 30 5 30H25V28.3333H20C19.5398 28.3333 19.1667 27.9602 19.1667 27.5C19.1667 27.0398 19.5398 26.6667 20 26.6667H25V25.04C25 25.0328 25.0015 25.026 25.003 25.0194L25.003 25.0194C25.0044 25.0129 25.0058 25.0066 25.0058 25H5C4.53976 25 4.16667 24.6269 4.16667 24.1667C4.16667 23.7064 4.53976 23.3333 5 23.3333H27.6825L31.5408 21.6667H20C19.5398 21.6667 19.1667 21.2936 19.1667 20.8333C19.1667 20.3731 19.5398 20 20 20H31.6667C32.1269 20 32.5 20.3731 32.5 20.8333C32.4969 21.0157 32.4326 21.1918 32.3175 21.3333L35 20.1725V15H27.5C26.1193 15 25 13.8807 25 12.5V5H2.5C2.03976 5 1.66667 5.3731 1.66667 5.83333V47.5C1.66667 47.9602 2.03976 48.3333 2.5 48.3333ZM45.4592 42.6275C47.2548 41.3541 48.3252 39.2921 48.3333 37.0908V25.5875L37.5 20.9075L28.1908 24.9325L28.175 24.9392L26.6667 25.5908V37.0908C26.675 39.2919 27.7454 41.3535 29.5408 42.6267L37.5 48.2933L45.4592 42.6275ZM9.99999 9.16666H4.99999C4.53976 9.16666 4.16666 8.79357 4.16666 8.33333C4.16666 7.87309 4.53976 7.5 4.99999 7.5H9.99999C10.4602 7.5 10.8333 7.87309 10.8333 8.33333C10.8333 8.79357 10.4602 9.16666 9.99999 9.16666ZM21.6667 9.16666H14.1667C13.7064 9.16666 13.3333 8.79357 13.3333 8.33333C13.3333 7.87309 13.7064 7.5 14.1667 7.5H21.6667C22.1269 7.5 22.5 7.87309 22.5 8.33333C22.5 8.79357 22.1269 9.16666 21.6667 9.16666ZM5 18.3333H31.6667C32.1269 18.3333 32.5 17.9602 32.5 17.5C32.5 17.0398 32.1269 16.6667 31.6667 16.6667H5C4.53976 16.6667 4.16666 17.0398 4.16666 17.5C4.16666 17.9602 4.53976 18.3333 5 18.3333ZM17.5 20.8333C17.5 21.2936 17.1269 21.6667 16.6667 21.6667H4.99999C4.53976 21.6667 4.16666 21.2936 4.16666 20.8333C4.16666 20.3731 4.53976 20 4.99999 20H16.6667C17.1269 20 17.5 20.3731 17.5 20.8333ZM16.6667 28.3333C17.1269 28.3333 17.5 27.9602 17.5 27.5C17.5 27.0398 17.1269 26.6667 16.6667 26.6667H4.99999C4.53976 26.6667 4.16666 27.0398 4.16666 27.5C4.16666 27.9602 4.53976 28.3333 4.99999 28.3333H16.6667ZM17.5 34.1667C17.5 34.6269 17.1269 35 16.6667 35H4.99999C4.53976 35 4.16666 34.6269 4.16666 34.1667C4.16666 33.7064 4.53976 33.3333 4.99999 33.3333H16.6667C17.1269 33.3333 17.5 33.7064 17.5 34.1667ZM16.6667 41.6667C17.1269 41.6667 17.5 41.2936 17.5 40.8333C17.5 40.3731 17.1269 40 16.6667 40H4.99999C4.53976 40 4.16666 40.3731 4.16666 40.8333C4.16666 41.2936 4.53976 41.6667 4.99999 41.6667H16.6667ZM37.1667 22.8658L28.8333 26.4658C28.5292 26.5985 28.3328 26.899 28.3333 27.2308V37.0908C28.3409 38.7528 29.1503 40.3088 30.5067 41.2692L37.0167 45.9033C37.306 46.1093 37.694 46.1093 37.9833 45.9033L44.4933 41.2692C45.8495 40.3086 46.6588 38.7527 46.6667 37.0908V27.2308C46.6671 26.899 46.4708 26.5985 46.1667 26.4658L37.8333 22.8658C37.6208 22.7731 37.3792 22.7731 37.1667 22.8658ZM45 27.7825V37.0908C44.9939 38.2156 44.4448 39.2681 43.5258 39.9167L37.5 44.2017L31.4742 39.9117C30.5563 39.2644 30.0073 38.2139 30 37.0908V27.7783L37.5 24.5392L45 27.7825ZM32.1726 35.067C32.4464 34.95 32.7618 34.988 33 35.1667L35.6875 37.1825L41.8492 29.4792C42.1368 29.1197 42.6614 29.0615 43.0208 29.3492C43.3803 29.6368 43.4385 30.1614 43.1508 30.5208L36.4842 38.8542C36.2029 39.2056 35.6934 39.2702 35.3333 39L32 36.5C31.7618 36.3214 31.637 36.0292 31.6726 35.7336C31.7083 35.4381 31.8989 35.1839 32.1726 35.067Z" fill="#0090A1"/>
</svg>

<svg width="50" height="50" viewBox="0 0 50 50" fill="none" xmlns="http://www.w3.org/2000/svg"><path fill-rule="evenodd" clip-rule="evenodd" d="M40 20.172l9.5 4.103c.304.133.5.433.5.765v12.05a8.487 8.487 0 01-3.575 6.896l-8.063 5.739a1.49 1.49 0 01-1.724 0l-.684-.486a2.494 2.494 0 01-1.787.761H2.5A2.5 2.5 0 010 47.5V5.833a2.5 2.5 0 012.5-2.5h.833V2.5a2.5 2.5 0 012.5-2.5H37.5A2.5 2.5 0 0140 2.5v17.672zM5.833 1.668A.833.833 0 005 2.5v.833h20.833a.1.1 0 01.024.004.834.834 0 01.24.044c.009.003.021.005.032.007.01.002.02.003.024.005a.07.07 0 01.014.009l.015.009c.09.04.173.097.244.167l10 10a.8.8 0 01.166.244l.001.001.006.008c.003.004.007.008.011.019.004.01.006.021.007.032a.165.165 0 00.006.026.783.783 0 01.04.212l.001.004.004.013c.003.01.005.02.005.03v5.286l.5-.218a.84.84 0 01.66 0l.5.218V2.5a.833.833 0 00-.833-.833H5.833zm27.989 11.666l-7.155-7.155V12.5c0 .46.373.833.833.833h6.322zm-31.322 35h31.667a.813.813 0 00.373-.101L30 45H5a.833.833 0 110-1.667h22.768a8.528 8.528 0 01-1.4-1.666H20A.833.833 0 0120 40h5.526a8.35 8.35 0 01-.422-1.667H5a.833.833 0 110-1.666h20V35h-5a.833.833 0 010-1.667h5v-1.666H5A.833.833 0 015 30h20v-1.667h-5a.833.833 0 010-1.666h5V25.04c0-.007.002-.014.003-.02.001-.007.003-.013.003-.02H5a.833.833 0 110-1.667h22.683l3.858-1.666H20A.833.833 0 0120 20h11.667c.46 0 .833.373.833.833a.814.814 0 01-.182.5L35 20.173V15h-7.5a2.5 2.5 0 01-2.5-2.5V5H2.5a.833.833 0 00-.833.833V47.5c0 .46.373.833.833.833zm42.96-5.706a6.818 6.818 0 002.873-5.536V25.587L37.5 20.907l-9.31 4.026-.015.006-1.508.652v11.5a6.818 6.818 0 002.874 5.536l7.959 5.666 7.96-5.666zM10 9.167H5A.833.833 0 015 7.5h5a.833.833 0 010 1.667zm11.667 0h-7.5a.833.833 0 110-1.667h7.5a.833.833 0 010 1.667zM5 18.333h26.667a.833.833 0 000-1.666H5a.833.833 0 100 1.666zm12.5 2.5c0 .46-.373.834-.833.834H5A.833.833 0 015 20h11.667c.46 0 .833.373.833.833zm-.833 7.5a.833.833 0 000-1.666H5a.833.833 0 000 1.666h11.667zm.833 5.834c0 .46-.373.833-.833.833H5a.833.833 0 010-1.667h11.667c.46 0 .833.373.833.834zm-.833 7.5a.833.833 0 000-1.667H5a.833.833 0 000 1.667h11.667zm20.5-18.801l-8.334 3.6a.833.833 0 00-.5.765v9.86a5.149 5.149 0 002.174 4.178l6.51 4.634a.832.832 0 00.966 0l6.51-4.634a5.15 5.15 0 002.174-4.178v-9.86a.833.833 0 00-.5-.765l-8.334-3.6a.834.834 0 00-.666 0zM45 27.782v9.309a3.482 3.482 0 01-1.474 2.826L37.5 44.202l-6.026-4.29A3.48 3.48 0 0130 37.09v-9.313l7.5-3.239 7.5 3.243zm-12.827 7.285a.833.833 0 01.827.1l2.688 2.015 6.161-7.703a.833.833 0 111.302 1.042l-6.667 8.333a.833.833 0 01-1.15.146L32 36.5a.833.833 0 01.173-1.433z" fill="#0090A1"/></svg>
